X:62
T:Spanish Dream
S:Andy H
R:Jig
O:England
N:Nov '95
M:6/8
I:speed 3480
C:Andy Hornby
A:Lancaster
K:D
A|\
def gfg|a2f dcd|e2A f2d|gfg e2A|\
def gfe|fga A2d|Bcd ecA|d3 d2::
a|\
fga def|Bcd G2e|cde Ace|dcB A2a|\
fga def|Bcd GAB|Ace gec|d3 d2:|
W:Copyright Andy Hornby
